X:1
T:the Wounded Hussar
T:the Wounded Hussar
T:Carolan
C:Carolan
L:1/8
M:3/4
K:F
V:1 treble 
V:1
 GF | D2 G2 A2 | B4 AG | ABcBAG | !fermata![CF]2 G2 A2 | B2 d2 d2 | !fermata!d>cBAGF | D2 G2 A2 | %8
 G4 :| GA | B2 d2 d2 | d4 cB | A2 c2 c2 | c4 =Bc | d2 g2 ^f2 | g3 a b2 | d2 g2 ^f2 | g4 ga | %18
 b3 a g2 | (f d3) cB | AcfA GF/E/ | !fermata![CF]2 G2 A2 | Bcdefe | !fermata!d>cBAGF | D2 G2 A2 | %25
 G4 |] %26

